Breeze Round Light/actions/16/gnumeric-pivottable.svg

<svg xmlns="http://www.w3.org/2000/svg" viewBox="0 0 16 16">
  <defs id="defs3051">
    <style type="text/css" id="current-color-scheme">
      .ColorScheme-Text {
        color:#232629;
      }
      </style>
  </defs>
 <path style="fill:currentColor;fill-opacity:1;stroke:none" 
       d="M 2 2 L 2 14 L 14 14 L 14 13 L 14 2 L 2 2 z M 8.6875 2.5 L 10.34375 3.59375 L 12 2.5 L 12.6875 2.9375 L 10.6875 4.25 L 10.34375 4.5 L 10 4.25 L 8 2.9375 L 8.6875 2.5 z M 3 5 L 13 5 L 13 13 L 3 13 L 3 5 z M 4 6 L 4 12 L 7 12 L 7 6 L 4 6 z M 8 7 L 8 8 L 12 8 L 12 7 L 8 7 z M 8 10 L 8 11 L 12 11 L 12 10 L 8 10 z "
     class="ColorScheme-Text"
     />
</svg>

<svg xmlns="http://www.w3.org/2000/svg" viewBox="0 0 16 16">
  <defs id="defs3051">
    <style type="text/css" id="current-color-scheme">.ColorScheme-Text {color:#fcfcfc;}</style>
  </defs>
 <path style="fill:currentColor;fill-opacity:1;stroke:none" 
       d="m 2,4 v 8 c 0,2 2,2 2,2 h 8 c 0,0 2,0 2,-2 0,-2 0,-6 0,-8 C 14,2 12,2 12,2 H 4 C 4,2 2,2 2,4 Z M 8.6875,2.5 10.34375,3.59375 12,2.5 12.6875,2.9375 10.6875,4.25 10.34375,4.5 10,4.25 8,2.9375 Z M 3,6 C 3,5 4,5 4,5 h 8 c 0,0 1,0 1,1 0,1 0,5 0,6 0,1 -1,1 -1,1 H 4 c 0,0 -1,0 -1,-1 z m 1,0 v 6 H 7 V 6 Z m 4,1 v 1 h 4 V 7 Z m 0,3 v 1 h 4 v -1 z"
     class="ColorScheme-Text"
     />
</svg>
